X: 38
T:Road to Dundee
% Nottingham Music Database
S:Kevin Briggs
M:3/4
L:1/4
K:G
d|"G"d3/2c/2B|"G"BAD|"C"GFE|"G"DGB|"C"c3/2d/2e|"G"dBG|"A7"(3G/2A/2G/2FG|
"D7"A2d|"G"d3/2c/2B|"G"BAD|"C"GFE|"G"DGB|"C"c3/2d/2e|"G"dBG|"D7"cAF|
"G"G2D|"D7"A2D|"G"B2D|"Am"cAF|"D7"DEF|"G"G3/2B/2d|"G"dBG|"A7"(3G/2A/2G/2FG|
"D7"A2D|"D7"A2c|"D7"A2D|"G"B2d|"G7"d2G|"C"c3/2d/2e|"G"dBG|"D7"cAF|G2:|<end>
<start>
